X:1
T:Title
%%score { ( 1 3 ) | ( 2 4 ) }
L:1/8
M:4/4
K:A
V:1 treble nm="Grand Piano"
V:3 treble 
V:2 bass 
V:4 bass 
V:1
 z4 z2[Q:1/4=100] [CE]>[CA] | [Ec]3 [Ec] BA[EG][DF] | [CE] [CA]3 z2 [EG]>[FA] | %3
 [GB]2 E2 [GB]2 [FA]>B | A4 z4 | z4 .B2 z2 | [CE] [CA]3 z2 [EG]>[FA] | %7
 [GB]2 [Ge]2 [EB]2 [Ec]>[DB] |[M:3/4] [CA]4 z2 |[M:1/4] E>A |[M:4/4] c3 c d>c [DB]>[CA] | %11
 [EB]2 G,>G, G,2 [GB]>[Ac] | [Bd]3 [Bd] [ce]>d [Ac]>[GB] | [Ac]2 C>C C2 c>d | e3 c [EAd]2 [EB]2 | %15
 [DFA] [A,DF]3 z2 [Fd]>[Fd] | %16
 [Ac]e z2 B2 c>B[Q:1/4=99][Q:1/4=97][Q:1/4=96][Q:1/4=94][Q:1/4=93][Q:1/4=91][Q:1/4=90][Q:1/4=88] | %17
[M:3/4] [CA]4 z2[Q:1/4=87][Q:1/4=85][Q:1/4=84][Q:1/4=82][Q:1/4=81][Q:1/4=79][Q:1/4=78][Q:1/4=76] |] %18
V:2
 z4 z2 [A,,A,]>[A,,A,] | [A,,A,]3 [A,,A,] [D,A,]2 [D,A,]2 | [A,,A,] [A,,E,]3 z2 E,>E, | %3
 E,2 E,2 E,2 z z/ G/ | A,2 D2 z2 [A,,A,]>[A,,A,] | [A,,A,]3 [A,,A,] [D,A,]2 [D,A,]2 | %6
 [A,,A,] [A,,E,]3 z2 E,>E, | E,2 [E,B,]2 [E,G,]2 [E,G,]2 |[M:3/4] [A,,A,]4 z2 | %9
[M:1/4][K:treble] [A,C]>[A,C] |[M:4/4] [A,E]3 [A,E] F>E[K:bass] A,,>A,, | E,2 E,>E, E,2 E,>E, | %12
 E,3 E, z z/[K:treble] B/[K:bass] E,>E, | A,2 A,>A, A,2[K:treble] [A,A]>[A,B,A] | %14
 [A,CA]3 [A,EA][K:bass] z z/ c/ z z/ A/ | D, D,3 z2 [B,,B,]>[B,,B,] | %16
 [E,C][E,CE] z2 [E,G,D]2 [E,E]>[E,D] |[M:3/4] [A,,E,]4 z2 |] %18
V:3
 x8 | z4 F2 z2 | x8 | x8 | c2 e2 z2 [CE]>[CA] | [Ec]3 [Ec] F-[FA][EG][DF] | x8 | x8 |[M:3/4] x6 | %9
[M:1/4] x2 |[M:4/4] x8 | x8 | x8 | x8 | x8 | x8 | x8 |[M:3/4] x6 |] %18
V:4
 x8 | x8 | x8 | z4 z2 E,2 | A,,4 z4 | x8 | x8 | x8 |[M:3/4] x6 |[M:1/4][K:treble] x2 | %10
[M:4/4] z4 A,2[K:bass] z2 | x8 | z4 E,2[K:treble][K:bass] z2 | x6[K:treble] x2 | %14
 z4[K:bass] C,2 [C,A,]2 | x8 | x8 |[M:3/4] x6 |] %18

